X:152
T:Cup of Tea
M:4/4
L:1/8
K:D
"Em"BAGF GEEF|GEBE GEEA|BAGF GEEF|"D"FDAD FDDA|
"Em"BAGF GEEF|GEBE GEEA|"G"B2 BA GABc|"D"dBAG FD D2:|
|:"D"d2 (3efg "A"fdec|"D"d2 (3efg "Bm"fB B2|"D"d2 (3efg "A"fdec|\
"G"dBAG "D"FD D2|
"D"d2 eg "A"fdec|"D"dfaf "G"g2 fg|"D"af (3gfe fdef|dBAG FD D2:|
|:"D"FAdA FABA|FAdA "A"FE E2|"D"FAdA FABc|"G"dBAG "D"FD D2|
FAdA FABA|FAde "A"feeg|"D"fdec dBAF|"G"GBAG "D"FD D2:|
